X: 1
T: Jimmy Byrne's
M: 4/4
L: 1/8
K: G
G2 dG BdGB|dGBd cedB|G2 dG Bcde|dBcA (3BcB EF|
GBdG BdGB|dGBd cedB|GBdG Bcde|dBcA BGGB||
egfg egfe|fd d/d/d Adfd|egfg efga|bgaf gfed|
egfg efge|defg afdf|geaf gedB|cAdc BGAF||
